!!!!SEGMENT: pl-kk--kk-i-1--003-001_anonim--missa-kyrie.krn
!!!cenid: 15xx:663
!!!COM: Anonim
!!!COM-rismid: pe30004985
!!!CDT:
!!!CNT:
!!!OPR: [Missa]
!!!OTL: Kyrie
!!!OMV: 001
!!!PDT:
!!!AGN:
!!!SMS-siglum: PL-Kk
!!!SMS-shelfmark: Kk.I.1
!!!SMS-shelfwork: 003-001 M
!!!SMS-variant:
!!!SMS-altvar:
!!!NIFC-rismid: 300257957
!!!URL-scan: http://repozytorium.nifc.pl/skany/pl-kk-nut--i-1
!!!ONB-nifc: UWAGA: Cantus (s. 12r-21r, skan 0014-0023), Altus (s. 12v-20v, skan 0205-0213), Tenor (s. 12v-21v, skan 0401-0410), Bassus (s. 12v-20v, skan 0574-0582). Części Mszy: 1. Kyrie, 2. Et in terra, 3. Patrem, 4. Sanctus, 5. Agnus Dei
!!!key: F:lyd
**kern	**text	**kern	**text	**kern	**text	**kern	**text
*group1	*	*group1	*	*group1	*	*group1	*
*part4	*part4	*part3	*part3	*part2	*part2	*part1	*part1
*staff4	*staff4	*staff3	*staff3	*staff2	*staff2	*staff1	*staff1
*I"BASSVS	*	*I"TENOR	*	*I"ALTVS	*	*I"CANTVS	*
*I'[B]	*	*I'[T]	*	*I'[A]	*	*I'[S]	*
*Ibass	*	*Itenor	*	*Ialto	*	*Isoprn	*
*ICvox	*	*ICvox	*	*ICvox	*	*ICvox	*
*clefF3	*	*clefC4	*	*clefC3	*	*clefC3	*
*k[b-]	*	*k[b-]	*	*k[b-]	*	*k[b-]	*
*F:lyd	*	*F:lyd	*	*F:lyd	*	*F:lyd	*
*M2/1	*	*M2/1	*	*M2/1	*	*M2/1	*
*met(C|)	*	*met(C|)	*	*met(C|)	*	*met(C|)	*
=1-	=1-	=1-	=1-	=1-	=1-	=1-	=1-
*2\right	*	*2\right	*	*2\right	*	*2\right	*
!LO:TX:t=P:problem:all\right:global	!	!LO:TX:t=P:problem:all\right:global	!	!LO:TX:t=P:problem:all\right:global	!	!LO:TX:t=P:problem:all\right:global	!
1.F	Kÿ-	0r	.	1r	.	00r	.
.	.	.	.	1.F	KY-	.	.
!LO:TX:t=P:problem:kreska pseudotaktowa	!	!	!	!	!	!	!
2G\	-ri-	.	.	.	.	.	.
=2	=2	=2-	=2-	=2-	=2-	=2-	=2-
!	!	!LO:TX:t=P:problem:kreska pseudotaktowa	!	!	!	!	!
2.A\	-e	1r	.	.	.	.	.
!	!	!	!	!LO:TX:t=P:problem:kreska pseudotaktowa	!	!	!
.	.	.	.	2G/	-ri-	.	.
4B-\	.	.	.	.	.	.	.
!LO:TX:t=P:problem:kreska pseudotaktowa	!	!	!	!	!	!	!
1c	.	1.F	Kÿ-	2.A/	-e	.	.
.	.	.	.	4B-/	.	.	.
=3	=3	=3-	=3-	=3-	=3-	=3-	=3-
!	!	!	!	!	!	!LO:TX:t=P:problem:kreska pseudotaktowa	!
2.F/	e-	.	.	1c	.	1r	.
.	.	2G/	-ri-	.	.	.	.
4E/	-leÿ-	.	.	.	.	.	.
*	*	*lig	*	*	*	*	*
2.D/	-ſon	1A	-e	0d	.	1.F	Kÿ-
4C/	.	.	.	.	.	.	.
=4-	=4-	=4-	=4-	=4-	=4-	=4-	=4-
!LO:TX:t=P:problem:kreska pseudotaktowa	!	!	!	!	!	!	!
1BB-	.	1B-	.	.	.	.	.
!	!	!	!	!	!	!LO:TX:t=P:problem:kreska pseudotaktowa	!
.	.	.	.	.	.	2G/	ri-
*	*	*Xlig	*	*	*	*	*
!	!	!LO:TX:t=P:problem:kreska pseudotaktowa	!	!LO:TX:t=P:problem:kreska pseudotaktowa	!	!	!
*	*	*	*	*	*	*lig	*
!LO:SIC:v:t=custos AA	!	!	!	!	!	!	!
!LO:LB:g=original	!	!	!	!	!	!	!
2AA/	.	1c	.	1c	.	1A	-e
2C/	.	.	.	.	.	.	.
=5-	=5-	=5	=5	=5-	=5-	=5-	=5-
1BB-	.	1d	.	2r	.	1B-	.
.	.	.	.	2.f\	e-	.	.
*	*	*	*	*	*	*Xlig	*
*	*	*2\right	*	*	*	*lig	*
1AA	.	2.c\	e-	.	.	1c	e-
.	.	.	.	4e\	.	.	.
!	!	!	!	!LO:TX:t=P:problem:kreska pseudotaktowa	!	!	!
.	.	.	.	2e\	-leÿ-	.	.
!	!	!LO:TX:t=P:problem:kreska pseudotaktowa	!	!	!	!	!
.	.	4B-/	.	.	.	.	.
=6-	=6-	=6	=6	=6	=6	=6-	=6-
!LO:TX:t=P:problem:kreska pseudotaktowa	!	!	!	!	!	!LO:TX:t=P:problem:kreska pseudotaktowa	!
1D	.	4A/	-leÿ-	1f	-ſon,	1d	.
.	.	4G/	.	.	.	.	.
.	.	1A	-ſon:	.	.	.	.
*	*	*	*	*	*	*Xlig	*
2r	.	.	.	2e\	.	2c/	-leÿ-
*	*ij	*	*	*	*	*	*
2D/	Kÿ-	2F/	.	2.d/	.	1f\	.
=7-	=7-	=7-	=7-	=7-	=7-	=7-	=7-
!	!	!LO:TX:t=P:problem:kreska pseudotaktowa	!	!	!	!	!
2BB-/	-ri-	1G	.	.	.	.	.
.	.	.	.	4c/	.	.	.
!	!	!	!	!LO:SIC:v:t=custos c	!	!	!
!	!	!	!	!LO:LB:g=original	!	!	!
!LO:TX:t=P:problem:kreska pseudotaktowa	!	!	!	!	!	!LO:TX:t=P:problem:kreska pseudotaktowa	!
2C/	-e	.	.	2.c/	.	2e\	-ſon:
!	!	!LO:SIC:v:t=custos B-	!	!	!	!	!
!	!	!LO:LB:g=original	!	!	!	!	!
1G	e-	2r	.	.	.	1d	.
.	.	.	.	4B-/	.	.	.
*	*	*	*ij	*	*	*	*
!	!	!LO:TX:t=P:problem:kreska pseudotaktowa	!	!	!	!	!
.	.	2B-/	Kÿ-	2B-/	.	.	.
=8-	=8-	=8	=8	=8-	=8-	=8-	=8-
*lig	*	*	*	*	*	*	*
!	!	!	!	!LO:TX:t=P:problem:kreska pseudotaktowa	!	!	!
1C	-leÿ-	2A/	.	1c	.	2.c/	.
.	.	2.G/	-ri-	.	.	.	.
!	!	!	!	!	!	!LO:TX:t=P:problem:kreska pseudotaktowa	!
.	.	.	.	.	.	4B-/	.
!	!	!	!	!	!	!LO:SIC:v:t=custos A	!
!	!	!	!	!	!	!LO:LB:g=original	!
1D	.	.	.	2r	.	2.A/	.
.	.	4F/	.	.	.	.	.
*	*	*	*	*	*ij	*	*
.	.	2.F/	.	2F/	e-	.	.
.	.	.	.	.	.	8G/L	.
.	.	.	.	.	.	8F/J	.
*Xlig	*	*	*	*	*	*	*
=9-	=9-	=9-	=9-	=9-	=9-	=9-	=9-
!LO:TX:t=P:problem:kreska pseudotaktowa	!	!	!	!	!	!	!
1C	-ſon	.	.	2.c/	-leÿ-	1G	.
.	.	4E/	.	.	.	.	.
!	!	!LO:TX:t=P:problem:kreska pseudotaktowa	!	!	!	!	!
.	.	2E/	.	.	.	.	.
!	!	!	!	!LO:TX:t=P:problem:kreska pseudotaktowa	!	!	!
.	.	.	.	4B-/	.	.	.
!	!	!	!	!	!	!LO:TX:t=P:problem:kreska pseudotaktowa	!
2r	.	1F	-e	2.A/	.	1F	.
2.c\	Kÿ-	.	.	.	.	.	.
.	.	.	.	4G/	.	.	.
=10-	=10-	=10-	=10-	=10-	=10-	=10	=10
!	!	!	!	!LO:TX:t=P:problem:kreska pseudotaktowa	!	!	!
.	.	2.c\	e-	1F	-ſon	2r	.
4B-\	-ri-	.	.	.	.	.	.
*	*	*	*	*	*	*	*ij
2.A\	-e	.	.	.	.	2F/	Kÿ-
.	.	4B-\	.	.	.	.	.
.	.	2.A/	.	2r	.	2.c/	-ri-
4G\	e-	.	.	.	.	.	.
1F\	-leÿ-	.	.	2A/	Ky-	.	.
!	!	!LO:TX:t=P:problem:kreska pseudotaktowa	!	!	!	!LO:TX:t=P:problem:kreska pseudotaktowa	!
.	.	4G/	.	.	.	4B-/	.
=11-	=11-	=11	=11	=11-	=11-	=11	=11
.	.	2F/	.	2.c/	-ri-	2A/	.
2E/	.	2C/	.	.	.	2G/	.
!	!	!	!	!LO:TX:t=P:problem:kreska pseudotaktowa	!	!	!
.	.	.	.	4B-/	.	.	.
!LO:TX:t=P:problem:kreska pseudotaktowa	!	!	!	!	!	!	!
1F	-ſon	2.c\	-leÿ-	2.A/	.	2F/	-e
.	.	.	.	.	.	2.c/	e-
!	!	!LO:TX:t=P:problem:kreska pseudotaktowa	!	!	!	!	!
.	.	4B-/	.	4G/	.	.	.
=12	=12	=12	=12	=12-	=12-	=12-	=12-
2r	.	4A/	.	2F/	-e	.	.
.	.	4G/	.	.	.	4B-/	.
!	!	!	!	!LO:TX:t=P:problem:kreska pseudotaktowa	!	!	!
2F/	e-	1A	.	2c/	e-	4A/	-leÿ-
!	!	!	!	!	!	!LO:TX:t=P:problem:kreska pseudotaktowa	!
.	.	.	.	.	.	4G/	.
2D/	.	.	.	1d	-leÿ-	2F/	-ſon
!LO:SIC:v:t=custos BB-	!	!	!	!	!	!	!
!LO:LB:g=original	!	!	!	!	!	!	!
2BB-/	.	2B-\	.	.	.	2.f\	Kÿ-
=13-	=13-	=13-	=13-	=13-	=13-	=13-	=13-
!	!	!	!	!LO:TX:t=P:problem:kreska pseudotaktowa	!	!	!
1C	-leÿ-	1G	.	1c	-ſon	.	.
.	.	.	.	.	.	4e\	.
!	!	!	!	!	!	!LO:TX:t=P:problem:kreska pseudotaktowa	!
.	.	.	.	.	.	2e\	-ri-
!LO:TX:t=P:problem:kreska pseudotaktowa	!	!LO:TX:t=P:problem:kreska pseudotaktowa	!	!	!	!	!
0F	-ſon	1F	-ſon	2r	.	2f\	-e
!	!	!	!	!	!	!LO:SIC:v:t=custos c	!
!	!	!	!	!	!	!LO:LB:g=original	!
.	.	.	.	2c/	Ky-	2.c/	e-
*	*Xij	*	*	*	*	*	*
=14-	=14-	=14-	=14-	=14-	=14-	=14-	=14-
.	.	2r	.	2A/	-ri-	.	.
.	.	.	.	.	.	4B-/	.
!	!	!LO:TX:t=P:problem:kreska pseudotaktowa	!	!LO:TX:t=P:problem:kreska pseudotaktowa	!	!	!
.	.	2c\	Kÿ-	2F/	-e-	4A/	.
!	!	!	!	!	!	!LO:TX:t=P:problem:kreska pseudotaktowa	!
.	.	.	.	.	.	4G/	.
!	!	!LO:SIC:v:t=custos A	!	!LO:SIC:v:t=custos c	!	!	!
!	!	!LO:LB:g=original	!	!LO:LB:g=original	!	!	!
2r	.	2A/	-rie	1c	-e-	4F/	-leÿ-
.	.	.	.	.	.	4G/	.
!	!	!LO:TX:t=P:problem:kreska pseudotaktowa	!	!	!	!	!
2F/	e-	2F/	e-	.	.	2.A/	.
=15-	=15-	=15	=15	=15-	=15-	=15-	=15-
2D/	-leÿ-	2A/	-leÿ-	1d	-leÿ-	.	.
.	.	.	.	.	.	4F/	-ſon
*	*	*	*	*	*	*	*Xij
2BB-/	.	2B-/	.	.	.	2.f\	e-
1C	-ſon	1G	.	1c	.	.	.
.	.	.	.	.	.	4e\	.
.	.	.	.	.	.	2e\	-leÿ-
=16-	=16-	=16-	=16-	=16-	=16-	=16-	=16-
!LO:TX:t=P:problem:kreska pseudotaktowa	!	!LO:TX:t=P:problem:kreska pseudotaktowa	!	!LO:TX:t=P:problem:kreska pseudotaktowa	!	!LO:TX:t=P:problem:kreska pseudotaktowa	!
0F\;<l	.	0F/;>l	-ſon	0c\;<l	-ſon	0f\;<l	-ſon:
*	*	*	*Xij	*	*Xij	*	*
=17||	=17||	=17||	=17||	=17||	=17||	=17||	=17||
*M2/1	*	*M2/1	*	*M2/1	*	*M2/1	*
*met(C|)	*	*met(C|)	*	*met(C|)	*	*met(C|)	*
!	!	!LO:TX:t=P:problem:kreska pseudotaktowa	!	!	!	!	!
0r	.	1r	.	00r	.	1.c	Chri-
.	.	1.c	Chri -	.	.	.	.
!	!	!	!	!	!	!LO:TX:t=P:problem:kreska pseudotaktowa	!
.	.	.	.	.	.	2c/	-ſte
=18-	=18-	=18-	=18-	=18-	=18-	=18	=18
!LO:TX:t=P:problem:kreska pseudotaktowa	!	!	!	!	!	!	!
1r	.	.	.	.	.	2.A/	e-
.	.	2c\	-ſte	.	.	.	.
.	.	.	.	.	.	4G/	-leÿ-
!	!	!	!	!	!	!LO:TX:t=P:problem:kreska pseudotaktowa	!
1.F	Chri-	2.A/	.	.	.	1F	-so(n)
!	!	!LO:TX:t=P:problem:kreska pseudotaktowa	!	!	!	!	!
.	.	4G/	.	.	.	.	.
=19-	=19-	=19	=19	=19-	=19-	=19	=19
.	.	2F/	e-	0r	.	2r	.
*	*	*	*	*	*	*	*ij
2F/	-ſte	1A	-leÿ-	.	.	2c/	Chri-
!	!	!	!	!	!	!LO:SIC:v:t=custos d	!
!	!	!	!	!	!	!LO:LB:g=original	!
1D	.	.	.	.	.	2d\	-ſte
.	.	4G/	.	.	.	2.f\	e-
.	.	4F/	.	.	.	.	.
=20-	=20-	=20-	=20-	=20-	=20-	=20-	=20-
!LO:TX:t=P:problem:kreska pseudotaktowa	!	!	!	!LO:TX:t=P:problem:kreska pseudotaktowa	!	!	!
1C	.	1G	-ſon	1.c	Chri-	.	.
.	.	.	.	.	.	4e\	.
.	.	.	.	.	.	2e\	-leÿ-
!	!	!LO:TX:t=P:problem:kreska pseudotaktowa	!	!	!	!LO:TX:t=P:problem:kreska pseudotaktowa	!
2r	.	1F	.	.	.	0f	-ſon
!	!	!	!	!LO:TX:t=P:problem:kreska pseudotaktowa	!	!	!
2.F/	e-	.	.	2c/	-ſte	.	.
=21-	=21-	=21	=21	=21	=21	=21-	=21-
.	.	2r	.	2.A/	.	.	.
4E/	.	.	.	.	.	.	.
*	*	*	*ij	*	*	*	*
1D	-leÿ-	2.F/	Chri-	.	.	.	.
.	.	.	.	8G/L	e-	.	.
.	.	.	.	8F/J	.	.	.
.	.	.	.	1G	-leÿ-	2r	.
.	.	4E/	-ſte	.	.	.	.
!LO:TX:t=P:problem:kreska pseudotaktowa	!	!LO:TX:t=P:problem:kreska pseudotaktowa	!	!	!	!	!
2C/	-ſon	2E/	e-	.	.	2c/	Chri-
=22	=22	=22-	=22-	=22-	=22-	=22-	=22-
!LO:SIC:v:t=custos D	!	!LO:SIC:v:t=custos F	!	!	!	!	!
!LO:LB:g=original	!	!LO:LB:g=original	!	!	!	!	!
!	!	!	!	!LO:TX:t=P:problem:kreska pseudotaktowa	!	!	!
2D/	.	2F/	-leÿ-	1F	-ſon,	2.A/	.
2.F/	.	2D/	.	.	.	.	.
.	.	.	.	.	.	8G/L	.
!	!	!	!	!	!	!LO:TX:t=P:problem:kreska pseudotaktowa	!
.	.	.	.	.	.	8F/J	.
!	!	!LO:TX:t=P:problem:kreska pseudotaktowa	!	!	!	!	!
.	.	1C	-ſon	2r	.	1G	.
4E/	.	.	.	.	.	.	.
*	*	*	*	*	*ij	*	*
2E/	.	.	.	2G/	Chri-	.	.
=23-	=23-	=23	=23	=23-	=23-	=23-	=23-
!LO:TX:t=P:problem:nuta dopisana pomiędzy sąsiednimi, pierwotnie pominięta	!	!	!	!	!	!	!
1F	.	1r	.	2A/	-ſte	2F/	-ſte
!	!	!	!	!	!	!LO:TX:t=P:problem:kreska pseudotaktowa	!
.	.	.	.	2.c/	e-	2c/	e-
1D	.	1F	Chri-	.	.	2d\	.
.	.	.	.	4B-/	.	.	.
!	!	!	!	!LO:TX:t=P:problem:kreska pseudotaktowa	!	!	!
.	.	.	.	2B-/	-leÿ-	1f\	.
=24-	=24-	=24-	=24-	=24	=24	=24-	=24-
!LO:TX:t=P:problem:kreska pseudotaktowa	!	!LO:TX:t=P:problem:kreska pseudotaktowa	!	!LO:TX:t=P:problem:kreska pseudotaktowa	!	!	!
1C	.	1G	-ſte	1c	-ſon	.	.
!	!	!	!	!	!	!LO:TX:t=P:problem:kreska pseudotaktowa	!
.	.	.	.	.	.	2e\	.
2.F/	.	2.A/	e-	2r	.	1f	-leÿ-
!	!	!	!	!LO:SIC:v:t=custos c	!	!	!
!	!	!	!	!LO:LB:g=original	!	!	!
.	.	.	.	2.c/	Chri-	.	.
4G\	.	4B-\	.	.	.	.	.
=25-	=25-	=25-	=25-	=25-	=25-	=25-	=25-
2A\	.	2c\	.	.	.	2e\	.
.	.	.	.	4B-/	.	.	.
1D	.	2.d\	-leÿ-	4A/	.	1f	.
!	!	!	!	!LO:TX:t=P:problem:kreska pseudotaktowa	!	!	!
.	.	.	.	4G/	.	.	.
.	.	.	.	2F/	.	.	.
.	.	4c\	.	.	.	.	.
!LO:TX:t=P:problem:kreska pseudotaktowa	!	!	!	!	!	!LO:TX:t=P:problem:kreska pseudotaktowa	!
2E/	.	2.c\	.	2G/	.	2e\	.
=26	=26	=26-	=26-	=26-	=26-	=26	=26
!	!	!	!	!	!	!LO:TX:t=P:problem:kreska pseudotaktowa	!
2F/	.	.	.	2A/	-ſte	1d	.
.	.	4B-\	.	.	.	.	.
!	!	!	!	!LO:TX:t=P:problem:kreska pseudotaktowa	!	!	!
2G/	.	2B-\	.	2B-/	.	.	.
!LO:TX:t=P:problem:kreska pseudotaktowa	!	!LO:TX:t=P:problem:kreska pseudotaktowa	!	!	!	!	!
*	*	*	*	*lig	*	*	*
!	!	!	!	!	!	!LO:SIC:v:t=custos e	!
!	!	!	!	!	!	!LO:PB:g=original	!
0C	.	1c	-ſon	1G	e-	00e	-ſon
=27-	=27-	=27-	=27-	=27-	=27-	=27-	=27-
*	*	*	*	*col	*	*	*
.	.	2r	.	2.c/	.	.	.
!	!	!LO:TX:t=P:problem:kreska pseudotaktowa	!	!	!	!	!
.	.	2C/	Chri-	.	.	.	.
*	*	*	*	*Xlig	*	*	*
!	!	!	!	!LO:TX:t=P:problem:kreska pseudotaktowa	!	!	!
.	.	.	.	4B-/	.	.	.
*	*	*	*	*Xcol	*	*	*
2r	.	4C/	-ſte	2A/	.	.	.
.	.	4D/	.	.	.	.	.
!LO:TX:t=P:problem:kreska pseudotaktowa	!	!	!	!	!	!	!
2C/	Chri-	4E/	.	2.G/	.	.	.
!	!	!LO:TX:t=P:problem:kreska pseudotaktowa	!	!	!	!	!
.	.	4F/	.	.	.	.	.
=28	=28	=28	=28	=28-	=28-	=28-	=28-
4C/	-ſte	2G/	.	.	.	.	.
4D/	.	.	.	4F/	.	.	.
4E/	e-	1C	e-	4E/	.	.	.
!	!	!	!	!LO:TX:t=P:problem:kreska pseudotaktowa	!	!	!
4F/	.	.	.	4D/	.	.	.
2G/	-leÿ-	.	.	2E/	.	1r	.
!LO:SIC:v:t=custos A	!	!LO:SIC:v:t=custos c	!	!	!	!	!
!LO:PB:g=original	!	!LO:PB:g=original	!	!	!	!	!
2.A\	-ſon-	2.c\	-leÿ-	2F/	.	.	.
=29-	=29-	=29-	=29-	=29-	=29-	=29-	=29-
.	.	.	.	4F/	.	2.c/	Chri-
4G\	.	4B-\	.	4G/	.	.	.
!LO:TX:t=P:problem:kreska pseudotaktowa	!	!LO:TX:t=P:problem:kreska pseudotaktowa	!	!	!	!	!
2F/	.	2A/	.	4A/	.	.	.
!	!	!	!	!LO:TX:t=P:problem:kreska pseudotaktowa	!	!LO:TX:t=P:problem:kreska pseudotaktowa	!
.	.	.	.	4B-/	.	4d\	.
2E/	.	2G/	.	2c/	.	2e\	.
2D/	.	2A/	.	1d\	.	2f\	.
=30-	=30-	=30-	=30-	=30-	=30-	=30-	=30-
2F/	.	2D/	-ſon	.	.	2d\	-ſte
!	!	!	!	!	!	!LO:TX:t=P:problem:kreska pseudotaktowa	!
2E/	.	2.G/	.	2.c/	.	2e\	e-
1D	.	.	.	.	.	1f	-leÿ-
.	.	4F/	.	4B-/	.	.	.
!	!	!	!	!LO:SIC:v:t=custos B-	!	!	!
!	!	!	!	!LO:PB:g=original	!	!	!
!	!	!LO:TX:t=P:problem:kreska pseudotaktowa	!	!LO:TX:t=P:problem:kreska pseudotaktowa	!	!	!
.	.	2F/	.	2B-/	.	.	.
=31-	=31-	=31	=31	=31-	=31-	=31-	=31-
!LO:TX:t=P:problem:kreska pseudotaktowa	!	!	!	!	!	!LO:TX:t=P:problem:kreska pseudotaktowa	!
0C	.	1.G	.	1.c	.	1e	-ſon
*	*	*	*	*	*	*	*Xij
.	.	.	.	.	.	2r	.
!	!	!	!	!LO:TX:t=P:problem:kreska pseudotaktowa	!	!LO:TX:t=P:problem:kreska pseudotaktowa	!
.	.	4F/	.	2c/	.	2c/	Chri-
.	.	4E/	.	.	.	.	.
=32	=32	=32-	=32-	=32	=32	=32	=32
1r	.	1D	.	2.A/	.	2d/	-ſte
.	.	.	.	.	.	2.f\	e-
.	.	.	.	8G/L	.	.	.
.	.	.	.	8F/J	.	.	.
!	!	!LO:TX:t=P:problem:kreska pseudotaktowa	!	!	!	!	!
2r	.	1C	.	1G	-leÿ-	.	.
.	.	.	.	.	.	4e\	.
*	*ij	*	*	*	*	*	*
!LO:TX:t=P:problem:kreska pseudotaktowa	!	!	!	!	!	!LO:TX:t=P:problem:kreska pseudotaktowa	!
2C/	-Chri-	.	.	.	.	2e\	-leÿ-
=33	=33	=33	=33	=33-	=33-	=33	=33
!	!	!	!	!LO:TX:t=P:problem:kreska pseudotaktowa	!	!	!
2D/	-ſte	0r	.	1F	-ſon	2d\	.
2.F/	e-	.	.	.	.	1c	-ſon
.	.	.	.	2r	.	.	.
4E/	.	.	.	.	.	.	.
!LO:TX:t=P:problem:kreska pseudotaktowa	!	!	!	!LO:TX:t=P:problem:kreska pseudotaktowa	!	!LO:TX:t=P:problem:kreska pseudotaktowa	!
2E/	.	.	.	2c/	Chri-	2G/	.
=34	=34	=34-	=34-	=34-	=34-	=34	=34
1D	-leÿ-	2r	.	2d/	.	2A/	.
!	!	!LO:TX:t=P:problem:kreska pseudotaktowa	!	!	!	!	!
.	.	2F/	Chri-	2.f\	.	2B-/	.
!LO:TX:t=P:problem:kreska pseudotaktowa	!	!	!	!	!	!	!
1C	-ſon	2G/	.	.	.	2c/	.
.	.	.	.	4e\	.	.	.
!	!	!	!	!	!	!LO:LB:g=original	!
*	*	*	*	*	*	*	*ij
!	!	!	!	!LO:TX:t=P:problem:kreska pseudotaktowa	!	!LO:TX:t=P:problem:kreska pseudotaktowa	!
.	.	2A/	.	2e\	.	2c/	Chri-
=35	=35	=35-	=35-	=35	=35	=35	=35
2r	.	1B-	.	1d	-ſte	2d\	-ſte
2BB-/	Chri-	.	.	.	.	2.f\	e-
!LO:TX:t=P:problem:kreska pseudotaktowa	!	!	!	!	!	!	!
1C	.	2A/	-ſte	2c/	.	.	.
.	.	.	.	.	.	4e\	.
!	!	!LO:TX:t=P:problem:kreska pseudotaktowa	!	!LO:TX:t=P:problem:kreska pseudotaktowa	!	!LO:TX:t=P:problem:kreska pseudotaktowa	!
.	.	2G/	e-	2c/	e-	2e\	-leÿ-
=36	=36	=36	=36	=36-	=36-	=36	=36
2BB-/	.	4B-\	-leÿ-	2d\	.	2d\	.
.	.	4A\	.	.	.	.	.
!LO:SIC:v:t=custos D	!	!	!	!	!	!	!
!LO:LB:g=original	!	!	!	!	!	!	!
!LO:TX:t=P:problem:kreska pseudotaktowa	!	!	!	!	!	!	!
2D/	.	4G/	.	2.f\	.	2B-/	.
!	!	!LO:TX:t=P:problem:kreska pseudotaktowa	!	!	!	!	!
.	.	4F/	.	.	.	.	.
!LO:SIC:v:t=custos C	!	!LO:SIC:v:t=custos G	!	!	!	!	!
!LO:LB:g=original	!	!LO:LB:g=original	!	!	!	!	!
2C/	-ſte	1G	.	.	.	1c	-ſon
.	.	.	.	4e\	.	.	.
!	!	!	!	!LO:TX:t=P:problem:kreska pseudotaktowa	!	!	!
2C/	e-	.	.	2e\	.	.	.
=37-	=37-	=37-	=37-	=37	=37	=37-	=37-
!	!	!LO:TX:t=P:problem:kreska pseudotaktowa	!	!	!	!	!
2.D/	.	1F	-ſon	1d	.	2A/	e-
.	.	.	.	.	.	4F/	-leÿ-
!	!	!	!	!	!	!LO:TX:t=P:problem:kreska pseudotaktowa	!
4E/	.	.	.	.	.	4G/	.
!LO:TX:t=P:problem:kreska pseudotaktowa	!	!	!	!	!	!	!
1F	.	1r	.	2c/	.	4A/	.
.	.	.	.	.	.	4B-/	.
.	.	.	.	2c/	-leÿ-	2.c/	.
*	*	*	*Xij	*	*	*	*
!	!	!	!	!LO:SIC:v:t=custos d	!	!	!
!	!	!	!	!LO:LB:g=original	!	!	!
=38	=38	=38-	=38-	=38-	=38-	=38-	=38-
1D	.	2r	.	2d\	.	.	.
.	.	.	.	.	.	4B-/	.
!	!	!LO:TX:t=P:problem:kreska pseudotaktowa	!	!	!	!LO:TX:t=P:problem:kreska pseudotaktowa	!
.	.	2F/	Chri-	2.f\	.	2B-/	.
*lig	*	*	*	*	*	*	*
1C	-leÿ-	2G/	-ſte	.	.	2c/	.
.	.	.	.	4e\	.	.	.
!	!	!	!	!	!	!LO:TX:t=P:problem:kreska pseudotaktowa	!
.	.	2A/	e-	2e\	.	2c/	-ſon
*	*	*	*	*	*	*	*Xij
=39-	=39-	=39-	=39-	=39-	=39-	=39	=39
!	!	!LO:TX:t=P:problem:kreska pseudotaktowa	!	!	!	!	!
1BB-	.	1B-	-leÿ-	1d	.	2d\	.
.	.	.	.	.	.	1f	e-
*Xlig	*	*	*	*	*	*	*
!	!	!	!	!LO:TX:t=P:problem:kreska pseudotaktowa	!	!	!
0C	.	2.A\	.	[1c\;<l	-ſon	.	.
.	.	.	.	.	.	4e\	.
!	!	!	!	!	!	!LO:TX:t=P:problem:kreska pseudotaktowa	!
.	.	8G/L	.	.	.	4d\	.
.	.	8F/J	.	.	.	.	.
*	*	*	*	*	*Xij	*	*
!	!	!	!	!	!	!LO:LB:g=original	!
=40-	=40-	=40-	=40-	=40-	=40-	=40	=40
.	.	1G	-ſon:	0c]	.	1e	-leÿ-
!LO:TX:t=P:problem:kreska pseudotaktowa	!	!LO:TX:t=P:problem:kreska pseudotaktowa	!	!	!	!LO:TX:t=P:problem:kreska pseudotaktowa	!
1F\;<l	-ſon	1F/;>l	.	.	.	1f;<l	-ſon:
*	*Xij	*	*	*	*	*	*
=41||	=41||	=41||	=41||	=41||	=41||	=41||	=41||
*M2/1	*	*M2/1	*	*M2/1	*	*M2/1	*
*met(C|)	*	*met(C|)	*	*met(C|)	*	*met(C|)	*
!	!	!	!	!LO:TX:t=P:problem:kreska pseudotaktowa	!	!	!
0r	.	0r	.	1r	.	1.F	Kÿ-
.	.	.	.	1.F	Kÿ-	.	.
!	!	!	!	!	!	!LO:TX:t=P:problem:kreska pseudotaktowa	!
.	.	.	.	.	.	2G/	-ri-
=42-	=42-	=42-	=42-	=42-	=42-	=42	=42
!LO:TX:t=P:problem:kreska pseudotaktowa	!	!	!	!	!	!	!
1r	.	1.F	Kÿ-	.	.	2.A/	-e
!	!	!	!	!LO:TX:t=P:problem:kreska pseudotaktowa	!	!	!
.	.	.	.	2G/	-ri-	.	.
.	.	.	.	.	.	4B-/	.
1.F	Kÿ-	.	.	2.A/	-e	2.c/	e-
!	!	!LO:TX:t=P:problem:kreska pseudotaktowa	!	!	!	!	!
.	.	2G/	-ri-	.	.	.	.
!	!	!	!	!	!	!LO:TX:t=P:problem:kreska pseudotaktowa	!
.	.	.	.	4B-/	.	4B-/	.
=43-	=43-	=43	=43	=43-	=43-	=43	=43
*	*	*	*	*lig	*	*	*
.	.	1A	-e	1c	e-	2A/	-leÿ-
2F/	-ri-	.	.	.	.	2F/	-ſon:
*	*	*	*	*col	*	*	*
!	!	!	!	!	!	!LO:TX:t=P:problem:kreska pseudotaktowa	!
0BB-	-e	2.B-\	e-	2.d/	-leÿ	1f	.
*	*	*	*	*Xlig	*	*	*
!	!	!LO:TX:t=P:problem:kreska pseudotaktowa	!	!LO:TX:t=P:problem:kreska pseudotaktowa	!	!	!
.	.	4c\	.	4c/	.	.	.
*	*	*	*	*Xcol	*	*	*
=44-	=44-	=44	=44	=44-	=44-	=44	=44
.	.	1d	-leÿ-	2.B-/	ſon;	2r	.
.	.	.	.	.	.	2.f\	.
.	.	.	.	4A/	.	.	.
*lig	*	*	*	*	*	*	*
!	!	!	!	!LO:TX:t=P:problem:kreska pseudotaktowa	!	!	!
1C	.	2.c\	-ſon	1G	.	.	.
.	.	.	.	.	.	4e\	.
!	!	!	!	!	!	!LO:TX:t=P:problem:kreska pseudotaktowa	!
.	.	.	.	.	.	2e\	.
.	.	4B-\	.	.	.	.	.
!	!	!	!	!	!	!LO:TX:a:t=e	!
=45-	=45-	=45-	=45-	=45	=45	=45	=45
1D	.	2A/	.	2F/	.	2d\	.
!	!	!LO:SIC:v:t=custos F	!	!	!	!	!
!	!	!LO:LB:g=original	!	!	!	!	!
!	!	!	!	!	!	!LO:TX:t=P:problem:kreska pseudotaktowa	!
.	.	2F/	.	2.f\	.	2B-/	.
*Xlig	*	*	*	*	*	*	*
!	!	!	!	!	!	!LO:LB:g=original	!
!LO:TX:t=P:problem:kreska pseudotaktowa	!	!	!	!	!	!LO:TX:t=P:problem:kreska pseudotaktowa	!
1C	.	1G	.	.	.	1c	.
.	.	.	.	4e\	.	.	.
!	!	!	!	!LO:SIC:v:t=custos e	!	!	!
!	!	!	!	!LO:LB:g=original	!	!	!
!	!	!	!	!LO:TX:t=P:problem:kreska pseudotaktowa	!	!	!
.	.	.	.	2e\	.	.	.
=46	=46	=46-	=46-	=46	=46	=46	=46
!	!	!LO:TX:t=P:problem:kreska pseudotaktowa	!	!	!	!	!
2r	.	1F	.	2.f\	.	2r	.
*	*	*	*	*	*	*	*ij
!	!	!	!	!	!	!LO:TX:t=P:problem:kreska pseudotaktowa	!
1F	e-	.	.	.	.	2c/	Kÿ-
.	.	.	.	4e\	.	.	.
.	.	2r	.	2d\	.	2d\	-ri-
*	*	*	*ij	*	*	*	*
!LO:TX:t=P:problem:kreska pseudotaktowa	!	!	!	!LO:TX:t=P:problem:kreska pseudotaktowa	!	!	!
2E/	.	2G/	Kÿ-	2c\	.	2e\	.
!LO:SIC:v:t=custos D	!	!	!	!	!	!	!
!LO:LB:g=original	!	!	!	!	!	!	!
=47	=47	=47-	=47-	=47-	=47-	=47-	=47-
!	!	!	!	!	!	!LO:TX:t=P:problem:kreska pseudotaktowa	!
1D	.	2A/	-ri-	1d	.	1f	-e
.	.	2B-/	.	.	.	.	.
*	*	*	*	*	*ij	*	*
!	!	!LO:TX:t=P:problem:kreska pseudotaktowa	!	!	!	!	!
1C	-leÿ-	1c	-e	2G/	Kÿ-	2.e\	e-
.	.	.	.	2.c/	-ri-	.	.
.	.	.	.	.	.	8d\L	.
.	.	.	.	.	.	8c\J	.
=48-	=48-	=48	=48	=48-	=48-	=48-	=48-
1G	-ſon	2r	.	.	.	1d	-leÿ-
.	.	.	.	4B-/	.	.	.
!	!	!	!	!LO:TX:t=P:problem:kreska pseudotaktowa	!	!	!
.	.	2B-\	e-	2B-/	-e	.	.
!LO:TX:t=P:problem:kreska pseudotaktowa	!	!	!	!	!	!LO:TX:t=P:problem:kreska pseudotaktowa	!
0C	.	2A/	-leÿ	2.c/	e-	1e	-ſon
!	!	!LO:TX:t=P:problem:kreska pseudotaktowa	!	!	!	!	!
.	.	2G/	.	.	.	.	.
.	.	.	.	4B-/	.	.	.
=49-	=49-	=49	=49	=49-	=49-	=49	=49
.	.	2.c\	ſon	2A/	.	2r	.
!	!	!	!	!LO:TX:t=P:problem:kreska pseudotaktowa	!	!	!
.	.	.	.	2G/	.	2.c/	Kÿ-
.	.	4B-\	.	.	.	.	.
2r	.	4A/	.	2.F/	-leÿ-	.	.
.	.	4G/	.	.	.	4B-/	-ri-
*	*ij	*	*Xij	*	*	*	*
*	*	*lig	*	*	*	*	*
2.c\	Kÿ-	1F/	e-	.	.	4A/	-e
!	!	!	!	!	!	!LO:TX:t=P:problem:kreska pseudotaktowa	!
.	.	.	.	4G/	.	4G/	e -
=50-	=50-	=50-	=50-	=50-	=50-	=50	=50
!	!	!	!	!LO:TX:t=P:problem:kreska pseudotaktowa	!	!	!
.	.	.	.	1A	-ſon	4F/	-leÿ-
4B-\	-ri-	.	.	.	.	4G/	.
*	*	*col	*	*	*	*	*
4A\	.	2.c\	-leÿ-	.	.	4A/	.
!LO:TX:t=P:problem:kreska pseudotaktowa	!	!	!	!	!	!	!
4G\	.	.	.	.	.	4B-/	.
!	!	!	!	!	!	!LO:TX:t=P:problem:kreska pseudotaktowa	!
1.F	-e	.	.	2r	.	1c	-ſon
*	*	*Xlig	*	*	*	*	*
.	.	4B-\	.	.	.	.	.
*	*	*Xcol	*	*	*	*	*
.	.	4A/	.	4F/	Kÿ-	.	.
!	!	!	!	!LO:TX:t=P:problem:kreska pseudotaktowa	!	!	!
.	.	4G/	.	4G/	.	.	.
=51-	=51-	=51-	=51-	=51	=51	=51	=51
.	.	2F/	-ſon	4A/	-ri-	2r	.
.	.	.	.	4B-/	.	.	.
!	!	!LO:TX:t=P:problem:kreska pseudotaktowa	!	!	!	!	!
2E/	e-	2C/	.	2.c/	-e	2c/	Kÿ-
*	*	*lig	*	*	*	*	*
!	!	!	!	!	!	!LO:PB:g=original	!
1D	-leÿ-	1F	.	.	.	2d/	-ri-
.	.	.	.	4B-/	.	.	.
!	!	!	!	!LO:TX:t=P:problem:kreska pseudotaktowa	!	!	!
.	.	.	.	2B-/	e-	2.f\	.
!	!	!	!	!LO:SIC:v:t=custos c	!	!	!
!	!	!	!	!LO:LB:g=original	!	!	!
=52-	=52-	=52-	=52-	=52	=52	=52-	=52-
!LO:TX:t=P:problem:kreska pseudotaktowa	!	!	!	!	!	!	!
1C	-ſon	1G	.	1c	-leÿ-	.	.
.	.	.	.	.	.	4d/	.
!	!	!	!	!	!	!LO:TX:t=P:problem:kreska pseudotaktowa	!
.	.	.	.	.	.	2e\	.
*	*	*Xlig	*	*	*	*	*
!	!	!	!	!LO:TX:t=P:problem:kreska pseudotaktowa	!	!	!
2r	.	[1F;>l	.	1A	-ſon	1f	-e
*	*Xij	*	*	*	*	*	*
2.F/	e-	.	.	.	.	.	.
*	*	*	*	*	*Xij	*	*Xij
=53-	=53-	=53-	=53-	=53	=53	=53-	=53-
.	.	0F_	.	2r	.	2c/	e-
4E/	.	.	.	.	.	.	.
4D/	-leÿ-	.	.	2A/	e-	2.f\	-leÿ-
!LO:TX:t=P:problem:kreska pseudotaktowa	!	!	!	!	!	!	!
4C/	.	.	.	.	.	.	.
1.BB-	-ſon	.	.	2.B-/	-leÿ-	.	.
.	.	.	.	.	.	4e\	.
.	.	.	.	.	.	4d/	.
!	!	!	!	!LO:TX:t=P:problem:kreska pseudotaktowa	!	!LO:TX:t=P:problem:kreska pseudotaktowa	!
.	.	.	.	4c/	.	4c/	.
=54-	=54-	=54-	=54-	=54	=54	=54	=54
.	.	00F]	.	2d\	-ſon:	2B-/	.
2AA/	.	.	.	2c\	.	2c/	.
1BB-	.	.	.	1B-	.	1d	.
=55-	=55-	=55-	=55-	=55-	=55-	=55-	=55-
0F\;>l	.	.	.	0A/;>l	.	0c\;;l	-ſon:
=-	=-	=-	=-	==	==	=-	=-
*-	*-	*-	*-	*-	*-	*-	*-
!!!system-decoration: [(g1)]
!!!RDF**kern: > = above
!!!RDF**kern: < = below
!!!RDF**kern: l = terminal long
!!!AIN: 1 alto 1 bass 1 soprn 1 tenor
!!!ENC: Mateusz Solarz
!!!END: 2022-01-18
!!!EED: Jędrzej Mróz
!!!EST: 2022-01-26
